X:01
T: Nickerson’s Reel
N: Tune for Good Man of Staunton
Q: ¼=108
S: Howe p. 33
M:  2/4
L: 1/8
Z: Contributed 2016-03-31 15:19:33 by Lou lvosteen1@cox.net
K: A
E|A>B ce|d/c/d/e/ fa/f/| ecc B/A/|F<B Bc/B/| A>B ce |d/c/d/e/ fa/f/|ec/A/ EF/G/|A2A:|
|:a/g/|fefg|acc a/g/|feac|B2Bc/B/|A>B ce|d/c/d/e/ fa/f/|ec/A/ EF/G/|A2 A:|
